X:407
T: STRASSBURG MUSS ICH LASSEN
N: E1600B
O: Europa, Mitteleuropa, Deutschland, Rheinland, Siebengebirge
R: Staende -, Handwerker -, Gesellen - Lied; Abschied, Wanderschaft
M: 3/4
L: 1/16
K: F
F2A2 | c4c4dcBA | A3GA4
G2A2 | B6d2c2B2 | A4z4
G2A2 | B4d4cBAG | A3Bc4
f2d2 | c4A4c2cB | A4z4

@@@ Tune index: 5091
